lab/spritesheet-tray-background-non-overlay.svg

<svg xmlns="http://www.w3.org/2000/svg" width="41" height="115">
   <!--
      Derived from `now-playing-tray.svg`.
   
      Row 1 (y-offset  0): Endcaps. Each is 15.5x31px.
   
      Row 1 (y-offset 32): middle section. 31px high. Occupies the 
      entire row, so you can use repeat-x.
      
      Row 2 (y-offset 63): play/pause bulge. 40.497x51px.
   -->
   <view id="dark" />
   <view id="lite" />
   <defs>
      <linearGradient id="dark-stroke" x1="0" x2="0" y1="0" y2="1">
         <stop offset=".45" stop-color="#202329" />
         <stop offset=".55" stop-color="#363c49" />
      </linearGradient>
      <linearGradient id="lite-stroke" x1="0" x2="0" y1="0" y2="1">
         <stop offset=".45" stop-color="#403e447C" />
         <stop offset=".55" stop-color="#655c677C" />
      </linearGradient>
      
      <style><![CDATA[
.edge {
   fill:         none;
   stroke:       url(#dark-stroke);
   stroke-width: 2px;
}

:root:has(#lite:target) {
   .edge {
      stroke: url(#lite-stroke);
   }
}
      ]]></style>
      
      <!--
         The general pattern here is:
         
            #foo-shape
               The shape we're working with.
            
            #foo-clip
               A clipPath element containing the shape, used so we can 
               have inner strokes only.
      -->
      
      <path id="endcaps-shape" d="M 15.5 0 l 9 0 a 15.5 15.5 0 0 1 0 31 l -9 0 a 15.5 15.5 0 0 1 0 -31 z" />
      <clipPath id="endcaps-clip">
         <use href="#endcaps-shape" />
      </clipPath>
      
      <rect id="middle-shape" x="-10" y="0" width="90" height="31" />
      <clipPath id="middle-clip">
         <use href="#middle-shape" />
      </clipPath>
      
      <path id="bulge-shape" d="M -5.2515 10 L 0 10 a 25.5 25.5 0 0 1 40.497 0 l 4.2515 0 l 0 31 l -4.2515 0 a 25.5 25.5 0 0 1 -40.497 0 l -5.2515 0 z" />
      <clipPath id="bulge-clip">
         <use href="#bulge-shape" />
      </clipPath>
   </defs>
   
   <g>
      <use href="#endcaps-shape" class="edge" clip-path="url(#endcaps-clip)" />
   </g>
   <g transform="translate(0 32)">
      <use href="#middle-shape" class="edge" clip-path="url(#middle-clip)" />
   </g>
   <g transform="translate(0 63)">
      <use href="#bulge-shape" class="edge" clip-path="url(#bulge-clip)" />
   </g>
</svg>

<svg xmlns="http://www.w3.org/2000/svg" width="41" height="115">
   <!--
      Derived from `now-playing-tray.svg`.
   
      Row 1 (y-offset  0): Endcaps. Each is 15.5x31px.
   
      Row 1 (y-offset 32): middle section. 31px high. Occupies the 
      entire row, so you can use repeat-x.
      
      Row 2 (y-offset 63): play/pause bulge. 40.497x51px.
   -->
   <view id="dark" />
   <view id="lite" />
   <defs>
      <linearGradient id="dark-stroke" x1="0" x2="0" y1="0" y2="1">
         <stop offset=".45" stop-color="#202329" />
         <stop offset=".55" stop-color="#363c49" />
      </linearGradient>
      <linearGradient id="lite-stroke" x1="0" x2="0" y1="0" y2="1">
         <stop offset=".45" stop-color="#403e447C" />
         <stop offset=".55" stop-color="#655c677C" />
      </linearGradient>
      
      <style><![CDATA[
.edge {
   fill:         none;
   stroke:       url(#dark-stroke);
   stroke-width: 2px;
}

:root:has(#lite:target) {
   .edge {
      stroke: url(#lite-stroke);
   }
}
      ]]></style>
      
      <!--
         The general pattern here is:
         
            #foo-shape
               The shape we're working with.
            
            #foo-clip
               A clipPath element containing the shape, used so we can 
               have inner strokes only.
      -->
      
      <path id="endcaps-shape" d="M0,15.5 a15.5 15.5 0 0 1 15.5 -15.5 L 24.5,0 a15.5 15.5 0 0 1 15.5 15.5 a15.5 15.5 0 0 1 -15.5 15.5 L15.5 31 a15.5 15.5 0 0 1 -15.5 -15.5 z" />
      <clipPath id="endcaps-clip">
         <use href="#endcaps-shape" />
      </clipPath>
      
      <rect id="middle-shape" x="-10" y="0" width="90" height="31" />
      <clipPath id="middle-clip">
         <use href="#middle-shape" />
      </clipPath>
      
      <path id="bulge-shape" d="M -5.2515 10 L 0 10 A 25.5 25.5 0 0 1 40.497 10 L 44.7485 10 L 44.7485 41 L 40.497 41 A 25.5 25.5 0 0 1 0 41 L -5.2515 41 z" />
      <clipPath id="bulge-clip">
         <use href="#bulge-shape" />
      </clipPath>
   </defs>
   
   <g>
      <use href="#endcaps-shape" class="edge" clip-path="url(#endcaps-clip)" />
   </g>
   <g transform="translate(0 32)">
      <use href="#middle-shape" class="edge" clip-path="url(#middle-clip)" />
   </g>
   <g transform="translate(0 63)">
      <use href="#bulge-shape" class="edge" clip-path="url(#bulge-clip)" />
   </g>
</svg>
